img/place_form-option1.svg

<svg width="20" height="20" viewBox="0 0 20 20" fill="none" xmlns="http://www.w3.org/2000/svg">
<path fill-rule="evenodd" clip-rule="evenodd" d="M17.2225 8.25391H2.36914C2.02414 8.25391 1.74414 7.97391 1.74414 7.62891C1.74414 7.28391 2.02414 7.00391 2.36914 7.00391H17.2225C17.5675 7.00391 17.8475 7.28391 17.8475 7.62891C17.8475 7.97391 17.5675 8.25391 17.2225 8.25391Z" fill="#FC6733"/>
<path fill-rule="evenodd" clip-rule="evenodd" d="M13.5014 11.5083C13.1564 11.5083 12.873 11.2283 12.873 10.8833C12.873 10.5383 13.1489 10.2583 13.4939 10.2583H13.5014C13.8464 10.2583 14.1264 10.5383 14.1264 10.8833C14.1264 11.2283 13.8464 11.5083 13.5014 11.5083Z" fill="#FC6733"/>
<path fill-rule="evenodd" clip-rule="evenodd" d="M9.80314 11.5083C9.45814 11.5083 9.1748 11.2283 9.1748 10.8833C9.1748 10.5383 9.45064 10.2583 9.79564 10.2583H9.80314C10.1481 10.2583 10.4281 10.5383 10.4281 10.8833C10.4281 11.2283 10.1481 11.5083 9.80314 11.5083Z" fill="#FC6733"/>
<path fill-rule="evenodd" clip-rule="evenodd" d="M6.09792 11.5083C5.75292 11.5083 5.46875 11.2283 5.46875 10.8833C5.46875 10.5383 5.74542 10.2583 6.09042 10.2583H6.09792C6.44292 10.2583 6.72292 10.5383 6.72292 10.8833C6.72292 11.2283 6.44292 11.5083 6.09792 11.5083Z" fill="#FC6733"/>
<path fill-rule="evenodd" clip-rule="evenodd" d="M13.5014 14.7471C13.1564 14.7471 12.873 14.4671 12.873 14.1221C12.873 13.7771 13.1489 13.4971 13.4939 13.4971H13.5014C13.8464 13.4971 14.1264 13.7771 14.1264 14.1221C14.1264 14.4671 13.8464 14.7471 13.5014 14.7471Z" fill="#FC6733"/>
<path fill-rule="evenodd" clip-rule="evenodd" d="M9.80314 14.7471C9.45814 14.7471 9.1748 14.4671 9.1748 14.1221C9.1748 13.7771 9.45064 13.4971 9.79564 13.4971H9.80314C10.1481 13.4971 10.4281 13.7771 10.4281 14.1221C10.4281 14.4671 10.1481 14.7471 9.80314 14.7471Z" fill="#FC6733"/>
<path fill-rule="evenodd" clip-rule="evenodd" d="M6.09792 14.7471C5.75292 14.7471 5.46875 14.4671 5.46875 14.1221C5.46875 13.7771 5.74542 13.4971 6.09042 13.4971H6.09792C6.44292 13.4971 6.72292 13.7771 6.72292 14.1221C6.72292 14.4671 6.44292 14.7471 6.09792 14.7471Z" fill="#FC6733"/>
<path fill-rule="evenodd" clip-rule="evenodd" d="M13.1611 4.826C12.8161 4.826 12.5361 4.546 12.5361 4.201V1.4585C12.5361 1.1135 12.8161 0.833496 13.1611 0.833496C13.5061 0.833496 13.7861 1.1135 13.7861 1.4585V4.201C13.7861 4.546 13.5061 4.826 13.1611 4.826Z" fill="#FC6733"/>
<path fill-rule="evenodd" clip-rule="evenodd" d="M6.42969 4.826C6.08469 4.826 5.80469 4.546 5.80469 4.201V1.4585C5.80469 1.1135 6.08469 0.833496 6.42969 0.833496C6.77469 0.833496 7.05469 1.1135 7.05469 1.4585V4.201C7.05469 4.546 6.77469 4.826 6.42969 4.826Z" fill="#FC6733"/>
<mask id="mask0_1266_60106" style="mask-type:alpha" maskUnits="userSpaceOnUse" x="1" y="2" width="17" height="17">
<path fill-rule="evenodd" clip-rule="evenodd" d="M1.66699 2.14941H17.917V18.7502H1.66699V2.14941Z" fill="white"/>
</mask>
<g mask="url(#mask0_1266_60106)">
<path fill-rule="evenodd" clip-rule="evenodd" d="M6.26783 3.39941C4.10699 3.39941 2.91699 4.55191 2.91699 6.64441V14.1852C2.91699 16.3236 4.10699 17.5002 6.26783 17.5002H13.3162C15.477 17.5002 16.667 16.3452 16.667 14.2486V6.64441C16.6703 5.61525 16.3937 4.81525 15.8445 4.26525C15.2795 3.69858 14.4087 3.39941 13.3237 3.39941H6.26783ZM13.3162 18.7502H6.26783C3.43033 18.7502 1.66699 17.0011 1.66699 14.1852V6.64441C1.66699 3.87108 3.43033 2.14941 6.26783 2.14941H13.3237C14.7478 2.14941 15.9253 2.57608 16.7295 3.38191C17.5103 4.16608 17.9212 5.29358 17.917 6.64608V14.2486C17.917 17.0252 16.1537 18.7502 13.3162 18.7502Z" fill="#FC6733"/>
</g>
</svg>

<svg width="20" height="20" viewBox="0 0 20 20" fill="none" xmlns="http://www.w3.org/2000/svg"><path fill-rule="evenodd" clip-rule="evenodd" d="M17.223 8.254H2.369a.625.625 0 0 1 0-1.25h14.854a.625.625 0 0 1 0 1.25zm-3.722 3.254a.628.628 0 0 1-.628-.625c0-.345.276-.625.62-.625h.008a.625.625 0 0 1 0 1.25zm-3.698 0a.628.628 0 0 1-.628-.625c0-.345.276-.625.62-.625h.008a.625.625 0 0 1 0 1.25zm-3.705 0a.629.629 0 0 1-.63-.625c0-.345.277-.625.622-.625h.008a.625.625 0 0 1 0 1.25zm7.403 3.239a.628.628 0 0 1-.628-.625c0-.345.276-.625.62-.625h.008a.625.625 0 0 1 0 1.25zm-3.698 0a.628.628 0 0 1-.628-.625c0-.345.276-.625.62-.625h.008a.625.625 0 0 1 0 1.25zm-3.705 0a.629.629 0 0 1-.63-.625c0-.345.277-.625.622-.625h.008a.625.625 0 0 1 0 1.25zm7.063-9.921a.625.625 0 0 1-.625-.625V1.459a.625.625 0 0 1 1.25 0V4.2c0 .345-.28.625-.625.625zm-6.731 0a.625.625 0 0 1-.625-.625V1.459a.625.625 0 0 1 1.25 0V4.2c0 .345-.28.625-.625.625z" fill="#FC6733"/><mask id="a" style="mask-type:alpha" maskUnits="userSpaceOnUse" x="1" y="2" width="17" height="17"><path fill-rule="evenodd" clip-rule="evenodd" d="M1.667 2.15h16.25v16.6H1.667V2.15z" fill="#fff"/></mask><g mask="url(#a)"><path fill-rule="evenodd" clip-rule="evenodd" d="M6.268 3.4c-2.161 0-3.351 1.152-3.351 3.244v7.541c0 2.139 1.19 3.315 3.35 3.315h7.05c2.16 0 3.35-1.155 3.35-3.251V6.644c.003-1.029-.273-1.829-.823-2.379-.564-.566-1.435-.866-2.52-.866H6.268zm7.048 15.35H6.268c-2.838 0-4.601-1.749-4.601-4.565v-7.54c0-2.774 1.763-4.496 4.6-4.496h7.057c1.424 0 2.601.427 3.406 1.233.78.784 1.191 1.912 1.187 3.264v7.603c0 2.776-1.763 4.501-4.6 4.501z" fill="#FC6733"/></g></svg>
